X:1
T:Title
%%score ( 1 2 ) ( 3 4 )
L:1/8
Q:1/4=95
M:4/4
K:Ab
V:1 treble nm="Grand Piano, Soprano"
V:2 treble 
V:3 bass nm="Choir Pad, Bass"
V:4 bass 
V:1
 E>E [EA]>[EA] [EA]>[EA] [EA]2 | [EG]>[FA] [GB]6 | [EG]>[EA] [GB]>[GB] [GB]>[Ac] [Bd]2 | z2 A4 z2 | %4
w: By~“Johanan” * * * * * *||||
 E>E [EA]>[EA] [EA]>[EA] [EA]2 | [EA]>[EB] [Ac]>[Ac] [Ac]>[Ac] [Ac]2 | %6
w: ||
 [Ac]>[Ad] [Ac]>[AB] [EA]>[EA] [EG]>A | z2 A6 | E>E [EA]6 | [EG]>[FA] [EG]6 | %10
w: ||||
 [EG]>[EA] [GB]>[GB] [GB]>[Ac] [Bd]2 | z2 A4 z2 | E>E [EA]>[EA] [EA]>[EA] [EA]2 | %13
w: |||
 [EA]>[EB] [Ac]>[Ac] [Ac]>[Ac] [Ac]2 | [Ac]>[Ad] [Ac]>[AB] [EA]>[EA] [EG]>A | z2 A6- | A6 z2 |] %17
w: ||||
V:2
 x8 | x8 | x8 | [EG]>[EG] E2- E-[EB] [Ac]2 | x8 | x8 | x8 | [EB]>[EB] E2 F>F E2 | x8 | x8 | x8 | %11
 [EG]>[EG] E2- E-[EB] [Ac]2 | x8 | x8 | x8 | [EB]>[EB] E2 F>F E2- | E6 z2 |] %17
V:3
 [A,C]>[A,C] [A,C]>[A,C] [A,C]>[A,C] [A,C]2 | [B,D]>[A,C] [E,E]2 [E,E]>[E,E] [E,E]2 | %2
 [E,B,]>[E,C] [E,E]>[E,E] [E,E]>[E,E] [E,E]2 | [E,D]>[E,D][K:treble] [A,C]2 [A,C][A,D] [A,E]2 | %4
 [A,C]>[A,C] [A,C]>[A,C] [A,C]>[A,C] [A,C]2 | [A,C]>[A,D] [A,E]>[A,E] [A,E]>[A,E] [A,E]2 | %6
 [A,E]>[A,F][K:bass] [A,E]>[A,D] [A,C]>[A,C] [E,B,]>C | z2 C2 z4 | %8
 [A,C]>[A,C] [A,C]2 [A,C]>[A,C] [A,C]2 | [B,D]>[A,C] [E,E]2 [E,E]>[E,E] [E,E]2 | %10
 [E,B,]>[E,C] [E,E]>[E,E] [E,E]>[E,E] [E,E]2 | [E,D]>[E,D][K:treble] [A,C]2 [A,C][A,D] [A,E]2 | %12
 [A,C]>[A,C] [A,C]>[A,C] [A,C]>[A,C] [A,C]2 | [A,C]>[A,D] [A,E]>[A,E] [A,E]>[A,E] [A,E]2 | %14
 [A,E]>[A,F][K:bass] [A,E]>[A,D] [A,C]>[A,C] [E,B,]>C | z2[K:treble] C2 z4 | z8 |] %17
V:4
 x8 | x8 | x8 | x2[K:treble] x6 | x8 | x8 | x2[K:bass] x6 | [E,D]>[E,D] A,2- [A,-D]>[A,-D] [A,C]2 | %8
 x8 | x8 | x8 | x2[K:treble] x6 | x8 | x8 | x2[K:bass] x6 | %15
 [E,D]>[E,D][K:treble] A,2- [A,-D]>[A,-D] [A,C]2- | [A,C]6 z2 |] %17

